Sources/FrostedUI/Resources/Icons.xcassets/trophy32.imageset/trophy-32.svg

<svg width="32" height="32" viewBox="0 0 32 32" fill="none" xmlns="http://www.w3.org/2000/svg" data-fui-icon="true">
  <path
    fill-rule="evenodd"
    clip-rule="evenodd"
    d="M1.5 8.25C1.5 6.73122 2.73122 5.5 4.25 5.5H7V4.39796C7 3.34974 7.84974 2.5 8.89796 2.5H23.102C24.1503 2.5 25 3.34974 25 4.39795V5.5H27.75C29.2688 5.5 30.5 6.73122 30.5 8.25V9.99998C30.5 12.6233 28.3734 14.75 25.75 14.75H24.9451C24.4747 19.0046 21.0387 22.3654 16.75 22.7192V28.25H21.25C21.6642 28.25 22 28.5858 22 29C22 29.4142 21.6642 29.75 21.25 29.75H10.75C10.3358 29.75 10 29.4142 10 29C10 28.5858 10.3358 28.25 10.75 28.25H15.25V22.7192C10.9613 22.3654 7.52525 19.0046 7.05493 14.75H6.25C3.62665 14.75 1.5 12.6233 1.5 9.99998V8.25ZM8.5 4.39796C8.5 4.17817 8.67817 4 8.89796 4H23.102C23.3218 4 23.5 4.17817 23.5 4.39795V13.75C23.5 17.8921 20.1421 21.25 16 21.25C11.8579 21.25 8.5 17.8921 8.5 13.75V4.39796ZM3 8.25C3 7.55965 3.55965 7 4.25 7H7V13.25H6.25C4.45507 13.25 3 11.7949 3 9.99998V8.25ZM29 9.99998C29 11.7949 27.5449 13.25 25.75 13.25H25V7H27.75C28.4404 7 29 7.55965 29 8.25V9.99998Z"
    fill="currentColor"
  />
</svg>

<svg xmlns="http://www.w3.org/2000/svg" width="32" height="32" fill="none" data-fui-icon="true" viewBox="0 0 32 32"><path fill="currentColor" fill-rule="evenodd" d="M1.5 8.25A2.75 2.75 0 0 1 4.25 5.5H7V4.398C7 3.35 7.85 2.5 8.898 2.5h14.204C24.15 2.5 25 3.35 25 4.398V5.5h2.75a2.75 2.75 0 0 1 2.75 2.75V10a4.75 4.75 0 0 1-4.75 4.75h-.805a9 9 0 0 1-8.195 7.97v5.53h4.5a.75.75 0 0 1 0 1.5h-10.5a.75.75 0 0 1 0-1.5h4.5v-5.53a9 9 0 0 1-8.195-7.97H6.25A4.75 4.75 0 0 1 1.5 10zm7-3.852c0-.22.178-.398.398-.398h14.204c.22 0 .398.178.398.398v9.352a7.5 7.5 0 0 1-15 0zM3 8.25C3 7.56 3.56 7 4.25 7H7v6.25h-.75A3.25 3.25 0 0 1 3 10zM29 10a3.25 3.25 0 0 1-3.25 3.25H25V7h2.75c.69 0 1.25.56 1.25 1.25z" clip-rule="evenodd"/></svg>
